svg/help_rhombus_outline.svg

<svg xmlns="http://www.w3.org/2000/svg" viewBox="0 0 24 24"><path d="M11 15.5h1.5V17H11zm1-8.55c2.7.11 3.87 2.83 2.28 4.86-.42.5-1.09.83-1.43 1.26-.35.43-.35.93-.35 1.43H11c0-.85 0-1.56.35-2.06.33-.5 1-.8 1.42-1.13 1.23-1.13.91-2.72-.77-2.85-.82 0-1.5.67-1.5 1.51H9c0-1.67 1.35-3.02 3-3.02M12 2c-.5 0-1 .19-1.41.59l-8 8c-.79.78-.79 2.04 0 2.82l8 8c.78.79 2.04.79 2.82 0l8-8c.79-.78.79-2.04 0-2.82l-8-8C13 2.19 12.5 2 12 2m0 2 8 8-8 8-8-8Z"/></svg>

<?xml version="1.0" encoding="UTF-8"?><!DOCTYPE svg PUBLIC "-//W3C//DTD SVG 1.1//EN" "http://www.w3.org/Graphics/SVG/1.1/DTD/svg11.dtd"><svg xmlns="http://www.w3.org/2000/svg" xmlns:xlink="http://www.w3.org/1999/xlink" version="1.1" id="mdi-help-rhombus-outline" width="24" height="24" viewBox="0 0 24 24"><path d="M11 15.5H12.5V17H11V15.5M12 6.95C14.7 7.06 15.87 9.78 14.28 11.81C13.86 12.31 13.19 12.64 12.85 13.07C12.5 13.5 12.5 14 12.5 14.5H11C11 13.65 11 12.94 11.35 12.44C11.68 11.94 12.35 11.64 12.77 11.31C14 10.18 13.68 8.59 12 8.46C11.18 8.46 10.5 9.13 10.5 9.97H9C9 8.3 10.35 6.95 12 6.95M12 2C11.5 2 11 2.19 10.59 2.59L2.59 10.59C1.8 11.37 1.8 12.63 2.59 13.41L10.59 21.41C11.37 22.2 12.63 22.2 13.41 21.41L21.41 13.41C22.2 12.63 22.2 11.37 21.41 10.59L13.41 2.59C13 2.19 12.5 2 12 2M12 4L20 12L12 20L4 12Z" /></svg>
